!!!CDT:
!!!PTL: Scherzi et arie a une, due, tre, et quattro voci per cantare nel clavicembalo ò altro simile istromento
!!!PPP: Venice
!!!PPR: Giacomo Vincenzi
!!!PDT: 1614
!!!RISM: C 2216
!!!rime:
!!!AGN: Madrigal
!!!SCT: Tsg19107d
!!!SCA: Tsg19107d
!!!voices:
!!!COM: Cifra, Antonio
!!!OTL: Ma che? squallido e scuro anco mi piaci
**kern	**kern	**text	**kern	**text
*part3	*part2	*part2	*part1	*part1
*staff3	*staff2	*staff2	*staff1	*staff1
*I"[Basso continuo]	*I"[Canto II]	*	*I"[Canto I]	*
*I'Bc	*I'C II	*	*I'C I	*
*oclefF4	*oclefC1	*	*oclefC1	*
*clefF4	*clefG2	*	*clefG2	*
*k[b-]	*k[b-]	*	*k[b-]	*
*F:	*F:	*	*F:	*
*omet(C)	*omet(C)	*	*omet(C)	*
*M4/4	*M4/4	*	*M4/4	*
=1	=1	=1	=1	=1
!	!	!	!LO:TX:a:t=Terza parte.	!
2G	2r	.	4r	.
.	.	.	4g	Ma
[2G	4r	.	2dd	che?
.	4g	Ma	.	.
=2	=2	=2	=2	=2
4G]	2dd	che,	2r	.
4F	.	.	.	.
4E	2r	.	8.g	squal-
.	.	.	16g	-li-
4D	.	.	4f	-do e
=3	=3	=3	=3	=3
2.C	4r	.	4e	scu-
.	4g	<Ma	4e	-ro an-
.	2cc	che?>	4c	-co
4BB-y	.	.	4d	mi
=4	=4	=4	=4	=4
4AA	8.cc	squal-	2e	pia-
.	16cc	-li-	.	.
4GG	4b-y	-do e	.	.
[2FF	4a	scu-	4f	-ci,
.	4a	-ro an-	4cc	an-
=5	=5	=5	=5	=5
4FF]	4.f	-co	8a	-co
.	.	.	8a	mi
4F	.	.	2dd	pia-
.	8d	mi	.	.
2E	2g	pia-	.	.
.	.	.	4cc#X	.
=6	=6	=6	=6	=6
2.D	2a	-ci;	1dd	-ci;
.	4r	.	.	.
4D	[4f	A-	.	.
=7	=7	=7	=7	=7
4D	8f]	.	2r	.
.	8f	-ni-	.	.
4C	4g	-ma	.	.
[2BB-y	[2b-y	bel-	4r	.
.	.	.	[4dd	A-
=8	=8	=8	=8	=8
4BB-]	4b-]	.	8dd]	.
.	.	.	8dd	-ni-
4C	4a	-la,	4ee	-ma
4D	4f	se	4ff	bel-
4E	4g	quin-	4ee	-la,
=9	=9	=9	=9	=9
1F	4.a	-ci en-	4cc	se
.	.	.	8fL	quin-
.	8g	.	8gJ	.
.	8fL	.	8aL	.
.	8gJ	.	8b-yJ	.
.	8aL	.	4cc	.
.	8b-yJ	.	.	.
=10	=10	=10	=10	=10
2F	8ccL	.	8aL	-ci en-
.	16dd	.	8b-yJ	.
.	16eeJ	.	.	.
.	4ff	.	8ccL	.
.	.	.	8aJ	.
2G	8ddL	-tro	8b-yL	-tro
.	8ccJ	.	8aJ	.
.	8ee-iL	.	8b-yL	.
.	8b-yJ	.	8gJ	.
=11	=11	=11	=11	=11
2C	4.cc	gi-	8aL	gi-
.	.	.	8gJ	.
.	.	.	2g	.
.	8b-y	.	.	.
2D	2a	.	.	.
.	.	.	4f#X	.
=12	=12	=12	=12	=12
4GG	2g	-re,	2g	-re,
2G	.	.	.	.
.	2r	.	2r	.
4F#X	.	.	.	.
=13	=13	=13	=13	=13
4G	2r	.	4g	S'o-
4A	.	.	8f	-di il
.	.	.	8e	mio
[2B-y	4b-y	S'o-	4d	pan-
.	8a	-di il	4dd	-to e
.	8g	mio	.	.
=14	=14	=14	=14	=14
4B-]	4.f	pian-	4b-y	le
4A	.	.	4cc	mie
.	8f	-to e	.	.
4G	4b-y	le	4.dd	vo-
4F	4a	mie	.	.
.	.	.	8dd	-glie au-
=15	=15	=15	=15	=15
2.E-X	2b-y	vo-	4ee-X	-da-
.	.	.	4e-i	-ci,
.	2g	-glie,	4b-y	<S'o-
4E-i	.	.	8a	-di il
.	.	.	8g	mio
=16	=16	=16	=16	=16
4D	4r	.	4f	pian-
4C	4cc	e	4g	-to e
2BB-y	4dd	le	4b-y	le
.	4ff	mie	4dd	mie
=17	=17	=17	=17	=17
2E-X	4ee-X	vo-	8ccL	vo-
.	.	.	8b-yJ	.
.	4dd	-glie au-	2b-y	-glie au-
2F	2cc	-da-	.	.
.	.	.	4a	-da-
=18	=18	=18	=18	=18
2BB-y	2b-y	-ci	4b-y	-ci>
.	.	.	2f	Per-
2B-y	4r	.	.	.
.	4d	Per-	[4b-y	-do-
=19	=19	=19	=19	=19
2G	2g	-do-	4b-]	.
.	.	.	2g	-na il
2c	2e	-na il	.	.
.	.	.	[4cc	fur-
=20	=20	=20	=20	=20
2F	2a	fur-	4cc]	.
.	.	.	2a	-to e'l
2D	2f	-to e'l	.	.
.	.	.	[4dd	te-
=21	=21	=21	=21	=21
2G	4.b-y	te-	8dd]	.
.	.	.	8cc	-me-
.	.	.	4b-y	-ra-
.	8a	-me-	.	.
[2C	2g	-ra-	2ee-X	-rio ar-
=22	=22	=22	=22	=22
4C]	4a	-rio ar-	4.cc	-di-
4C	2g	-di-	.	.
.	.	.	8b-y	.
2D	.	.	2a	.
.	4f#X	.	.	.
=23	=23	=23	=23	=23
4GG	2g	-re,	4g	-re,
2G	.	.	4.b-y	S'o-
.	2r	.	.	.
.	.	.	8b-y	-di il
4F#X	.	.	4a	mio
=24	=24	=24	=24	=24
4G	2r	.	2g	pian-
4A	.	.	.	.
[2B-y	4r	.	2f	-to
.	4dd	S'o-	.	.
=25	=25	=25	=25	=25
4B-]	8dd	-di il	1r	.
.	8dd	il	.	.
4A	4cc	mio	.	.
4G	2b-y	pian-	.	.
4F	.	.	.	.
=26	=26	=26	=26	=26
1E-X	2g	-to	2r	.
.	4r	.	2g	e
.	4g	e	.	.
=27	=27	=27	=27	=27
4D	4b-y	le	4f	le
4C	4cc	mie	4e-X	mie
2BB-y	[2dd	vo-	2f	vo-
=28	=28	=28	=28	=28
2E-X	4dd]	.	4g	-glie au-
.	8ccL	-glie au-	2b-y	-da-
.	16dd	.	.	.
.	16eeJ	.	.	.
2F	2cc	-da-	.	.
.	.	.	4a	.
=29	=29	=29	=29	=29
2BB-y	2b-y	-ci	2b-y	-ci
2B-y	2r	.	4r	.
.	.	.	4dd	Per-
=30	=30	=30	=30	=30
2G	4r	.	4dd	-do-
.	4g	Per-	4dd	-na il
2c	4g	-do-	2eenX	fur-
.	4g	-na il	.	.
=31	=31	=31	=31	=31
2F	2a	fur-	2cc	-to
2D	2f	-to	4r	.
.	.	.	4dd	e'l
=32	=32	=32	=32	=32
2G	4r	.	4.b-y	te-
.	4g	e'l	.	.
.	.	.	8a	-me-
[2C	4.e-X	te-	[2g	-ra-
.	8d	-me-	.	.
=33	=33	=33	=33	=33
4C]	8c	-ra-	4g]	.
.	8c	-rio ar-	.	.
4C	2g	-di-	8g	.
.	.	.	8a	-rio ar-
2D	.	.	2a	-di-
.	4f#X	.	.	.
=34	=34	=34	=34	=34
1GG	1g	-re.	1g	-re.
=35||	=35||	=35||	=35||	=35||
!	!	!	!LO:TX:a:t=Quarta ed ultima parte.	!
2G	1r	.	1r	.
[2G	.	.	.	.
=36	=36	=36	=36	=36
4G]	2.g	Dal-	1r	.
4F	.	.	.	.
4E	.	.	.	.
4D	4f	-le	.	.
=37	=37	=37	=37	=37
2.C	4e	pal-	2r	.
.	8e	-li-	.	.
.	8d	-de	.	.
.	2c	la-	[2cc	Dal-
4BB-y	.	.	.	.
=38	=38	=38	=38	=38
4AA	2e	-bra i	4cc]	.
4GG	.	.	4b-y	-le
[2FF	8fL	fred-	4a	pal-
.	8gJ	.	.	.
.	8fL	.	8a	-li-
.	8gJ	.	8g	-de
=39	=39	=39	=39	=39
4FF]	4.a	.	4f	la-
4F	.	.	4d	-bra i
.	8b-y	-di	.	.
2E	[2g	ba-	4.g	fred-
.	.	.	8a	-di
=40	=40	=40	=40	=40
2.D	2g]	.	8b-yL	ba-
.	.	.	8aJ	.
.	.	.	8b-yL	.
.	.	.	8ccJ	.
.	2f#X	-ci,	2a	-ci,
4D	.	.	.	.
=41	=41	=41	=41	=41
4D	1r	.	2r	.
4C	.	.	.	.
[2BB-y	.	.	[2d	Che
=42	=42	=42	=42	=42
4BB-]	1r	.	4d]	.
4C	.	.	4e	più
4D	.	.	4f	cal-
4E	.	.	8g	-di
.	.	.	8g	spe-
=43	=43	=43	=43	=43
[1F	2.f	Che	8aL	-rai,
.	.	.	8b-yJ	.
.	.	.	8aL	.
.	.	.	8b-yJ	.
.	.	.	2cc	.
.	4g	più	.	.
=44	=44	=44	=44	=44
2F]	4a	cal-	4r	.
.	8a	-di	2dd	vò
.	8a	spe-	.	.
2G	4b-y	-rai,	.	.
.	4dd	vò	4b-y	pur
=45	=45	=45	=45	=45
2C	4cc	pur	4a	ra-
.	4b-y	ra-	2g	-pi-
2D	2a	-pi-	.	.
.	.	.	4f#X	.
=46	=46	=46	=46	=46
4GG	2g	-re.	2g	-re.
2G	.	.	.	.
.	2r	.	2r	.
4F#X	.	.	.	.
=47	=47	=47	=47	=47
4G	1r	.	4b-y	Par-
4A	.	.	8a	-te
.	.	.	8g	tor-
[2B-y	.	.	8f	-rò
.	.	.	8e	di
.	.	.	8d	sue
.	.	.	8c	ra-
=48	=48	=48	=48	=48
4B-]	1r	.	4B-y	-gio-
4A	.	.	4c	-ni a
4G	.	.	2d	mor-
4F	.	.	.	.
=49	=49	=49	=49	=49
2.E-i	4ee-X	Par-	2G	-te,
.	8dd	-te	.	.
.	8cc	tor-	.	.
.	8b-y	-rò	2r	.
.	8a	di	.	.
4E-i	8g	sue	.	.
.	8g	ra-	.	.
=50	=50	=50	=50	=50
4D	4f	-gio-	4r	.
4C	4e-X	-ni a	8r	.
.	.	.	8ee-X	di
2BB-y	4f	mor-	8dd	sue
.	.	.	8cc	ra-
.	8d	-te,	[4b-y	-gio-
.	8d	di	.	.
=51	=51	=51	=51	=51
2E-i	8g	sue	4b-]	.
.	8a	ra-	.	.
.	4.b-y	-gio-	4g	-ni a
2F	.	.	2cc	mor-
.	8a	-ni a	.	.
.	4a	mor-	.	.
=52	=52	=52	=52	=52
2BB-y	1b-y	-te,	2b-y	-te,
2B-y	.	.	2r	.
=53	=53	=53	=53	=53
2G	2r	.	4r	.
.	.	.	4g	Bac-
2c	4r	.	4.e	-cian-
.	4cc	Bac-	.	.
.	.	.	8e	-do
=54	=54	=54	=54	=54
2F	4.a	-cian-	8f	que-
.	.	.	8g	-ste
.	.	.	2a	la-
.	8a	-do	.	.
2D	8f	que-	.	.
.	8g	-ste	.	.
.	[4a	la-	4f	-bra es-
=55	=55	=55	=55	=55
2G	4a]	.	2b-y	-san-
.	4g	-bra es-	.	.
[2C	2e-X	-san-	4g	-gui,
.	.	.	8r	.
.	.	.	8g	es-
=56	=56	=56	=56	=56
2C]	4c	-gui, e	4cc	-san-
.	2g	smor-	4b-y	-gui e
2D	.	.	2a	smor-
.	4f#X	.	.	.
=57	=57	=57	=57	=57
4GG	4g	-te,	2g	-te,
2G	2b-y	Par-	.	.
.	.	.	2r	.
4F#X	8a	-te	.	.
.	8a	tor-	.	.
=58	=58	=58	=58	=58
4G	8g	-rò	4r	.
.	8g	di	.	.
4A	8f	sue	2ff	Par-
.	8e-X	ra-	.	.
[2B-y	2d	-gion,	.	.
.	.	.	8ee-X	-te
.	.	.	8ee-i	tor-
=59	=59	=59	=59	=59
4B-]	1r	.	8dd	-rò
.	.	.	8dd	di
4A	.	.	8cc	sue
.	.	.	8b-y	ra-
4G	.	.	2b-y	-gion,
4F	.	.	.	.
=60	=60	=60	=60	=60
1E-X	4r	.	1r	.
.	2b-y	<Par-	.	.
.	8a	-te	.	.
.	8g	tor-	.	.
=61	=61	=61	=61	=61
4D	4f	-rò	4ff	<Par-
4C	4g	di	8ee-X	-te
.	.	.	8ee-i	tor-
2BB-y	4b-y	sue	8dd	-rò
.	.	.	8dd	di
.	4f	ra-	8cc	sue
.	.	.	8b-y	ra-
=62	=62	=62	=62	=62
2E-X	8g	-gion>	4.b-y	-gion>
.	8a	a	.	.
.	2b-y	mor-	.	.
.	.	.	8g	a
2F	.	.	2cc	mor-
.	4a	.	.	.
=63	=63	=63	=63	=63
2.BB-y	2b-y	-te,	4b-y	-te,
.	.	.	4ff	Bac-
.	4ff	Bac-	4.dd	-cian-
4B-y	[4dd	-cian-	.	.
.	.	.	8cc	-do
=64	=64	=64	=64	=64
2G	8dd]	.	8b-y	que-
.	8cc	-do	8a	-ste
.	8b-y	que-	4g	la-
.	8a	-ste	.	.
2c	4g	la-	4e	-bra,
.	4e	-bra,	4cc	<Bac-
=65	=65	=65	=65	=65
2F	4cc	<Bac-	4.a	-cian-
.	4.a	-cian-	.	.
.	.	.	8g	-do
2D	.	.	8f	que-
.	8g	-do	8e	-ste
.	8f	que-	[4d	la-
.	8e	-ste	.	.
=66	=66	=66	=66	=66
2G	4.d	la-	4d]	.
.	.	.	2g	-bra> es-
.	8d	-bra> es-	.	.
[2C	4e-X	-san-	.	.
.	4c	-gui e	[4a	-san-
=67	=67	=67	=67	=67
2C]	4.cc	smor-	8a]	.
.	.	.	8g	-gui e
.	.	.	2g	smor-
.	16aL	.	.	.
.	32b-y	.	.	.
.	32ccJ	.	.	.
2D	2a	.	.	.
.	.	.	4f#i	.
=68	=68	=68	=68	=68
1GGl	1gl	-te.	1gl	-te.
==	==	==	==	==
*-	*-	*-	*-	*-
!!!system-decoration: [*]
!!!RDF**kern: i = editorial accidental
!!!RDF**kern: l = terminal long
!!!ENC: Emiliano Ricciardi
!!!END:
!!!EED: Ricciardi, Emiliano
!!!EEV: 2020/07/28
!!!YEC: Copyright 2018 Emiliano Ricciardi, All Rights Reserved
!!!ONB: Translated from MusicXML on 2020/07/28
!!@@BEGIN:	VERSEDATA
!!@CATALOGNUM:	Tsg19107
!!@LAST_MODIFIED: 2020/07/12
!!@TITLE:		Ma che? squallido e scuro anco mi piaci
!!@CANTO:		XIX
!!@OTTAVA:	107
!!@MANUSRC:	G-Al, G-Au, G-Br<sub>2</sub>, G-Es<sub>1</sub>, G-Es<sub>2</sub>, G-Es<sub>3</sub>, G-F, G-Fr, G-Fr<sub>1</sub>, G-Fr<sub>2</sub>, G-Mc<sub>1</sub>, G-Mr, G-Mt, G-N
!!@PRINTSRC:	G-1580CM, G-1581B, G-1581CV, G-1581R, G-1581MR, G-1581P, G-1581V, G-1581V<sub>bis</sub>, G-1582C, G-1582M, G-1582MC, G-1582P, G-1582SC, G-1582SC<sub>bis</sub>, G-1583S, G-1584O, G-1584S, G-1585C, G-1585S, G-1588S, G-1589S, G-1590B, G-1590S, G-1592S, G-1593S, G-1594C, G-1595C, G-1597C, G-1598C, G-1599C, G-1600C, G-1600S, G-1601C, G-1601R, G-1602C, G-1604C, G-1604Cl, G-1604F, G-1604P, G-1606B, G-1606B<sub>bis</sub>, G-1606L, G-1607ZR, G-1608DP, G-1609GC, G-1610M, G-1611S, G-1611V, G-1612P, G-1613M, G-1613P, G-1613V, G-1615P, G-1616M, G-1617P, G-1619B, G-1619V, G-1620M, G-1620S, G-1621R, G-1624I, G-1624MT, G-1625C, G-1625S, G-1625SS, G-1626C, G-1626Co, G-1627M, G-1628T, G-1628Tu, G-1630L, G-1630T, G-1632FT, G-1639CF, G-1642M, G-1643I, G-1644P, G-1644S
!!@@BEGIN:	VERSES
!!@ABOUTIT:
!!@ABOUTEN:
!!@EDITOR:	Angelo Solerti
!!@EDITION_TITLE: Gerusalemme liberata. Poema eroico di Torquato Tasso. Edizione critica sui manoscritti e le prime stampe.
!!@EDITION_LOC:	Florence
!!@EDITION_PUB:	G. Barbera
!!@EDITION_DATE:  1895
!!@EDITION_VOL:
!!@EDITION_PAGE:
!!@TRANSLATOR:	Emiliano Ricciardi and Amyrose McCue Gill
!!@VERSE:
!!	Ma che? squallido e scuro anco mi piaci;
!!	Anima bella, se quinci entro gire,
!!	S’odi il mio pianto, alle mie voglie audaci
!!	Perdona il furto, e ’l temerario ardire.
!!	Dalle pallide labbra i freddi baci,
!!	Che più caldi sperai, vuò pur rapire.
!!	Parte torrò di sue ragioni a morte,
!!	Baciando queste labbra esangui e smorte.
!!@TVERSE:
!!	But what [am I saying]? Dismal and dark still you please me;
!!	Beautiful soul, if there within it turns,
!!	If you hear my lament, for my daring desires
!!	Pardon the theft, and the reckless courage.
!!	From pale lips even cold kisses,
!!	Which I hoped [were] warmer, I wish to steal.
!!	I will take some of what belongs to her from death,
!!	Kissing these lips, bloodless and lifeless.
!!@@END:		VERSES
!!@OTHER_CRIT_ED:  Torquato Tasso, <i>Gerusalemme liberata</i>, ed. Lanfranco Caretti, 2 vols. (Bari: Laterza, 1967).
!!@ATTRIBUTION_ABOUT:
!!@DATING:	mid-1560s through 1570s
!!@DEDICATEE:	Duke Alfonso II d'Este
!!@COMMENTARY:
!!@@END:		VERSEDATA
!!@@BEGIN: SETTING
!!@CATALOGNUM:	Tsg19107d
!!@CANTO:		XIX
!!@OTTAVA:	107
!!@TITLE:	Ma che? squallido e scuro anco mi piaci
!!@COMPOSER:	Cifra, Antonio
!!@PARTS:		3-4 (verses 1-4; 5-8) of 4
!!@PRINCEPSTITLE:	Scherzi et arie a une, due, tre, et quattro voci per cantare nel clavicembalo ò altro simile istromento
!!@PRINCEPSLOC:	Venice
!!@NORMLOC:	Venice
!!@NORMPUB:	Giacomo Vincenzi
!!@NORMPUBSHORT:	G. Vincenzi
!!@PRINCEPSPUB:	Giacomo Vincenzi
!!@PRINCEPSYEAR:	1614
!!@PRINCEPSRISM:	C 2216
!!@OVOICES:	2+bc
!!@EXTANTVOICES:	2+bc
!!@OMENSURATION:	C
!!@OCLEFS:	C1,C1,F4
!!@OTIME:		
!!@OKEYSIG:	b-
!!@FINAL:		(G)G
!!@TIMPEDITOR:	Ricciardi, Emiliano
!!@REPRINTS:	
!!@@END: SETTING
